assets/icons/turn-arrow.svg

<svg width="29" height="18" viewBox="0 0 29 18" fill="none" xmlns="http://www.w3.org/2000/svg">
<path d="M10.9449 10.9449C11.1321 10.7579 11.3859 10.6528 11.6505 10.6528C11.9152 10.6528 12.169 10.7579 12.3562 10.9449L15.0192 13.6079C15.2062 13.7951 15.3113 14.0489 15.3113 14.3135C15.3113 14.5782 15.2062 14.832 15.0192 15.0192L12.3562 17.6822C12.2648 17.7803 12.1546 17.859 12.0321 17.9136C11.9096 17.9682 11.7773 17.9975 11.6432 17.9999C11.5092 18.0023 11.376 17.9776 11.2516 17.9274C11.1273 17.8771 11.0143 17.8024 10.9195 17.7076C10.8247 17.6127 10.7499 17.4998 10.6997 17.3754C10.6495 17.2511 10.6248 17.1179 10.6272 16.9838C10.6295 16.8497 10.6589 16.7175 10.7135 16.595C10.768 16.4725 10.8467 16.3623 10.9449 16.2708L12.9021 14.3135L10.9449 12.3563C10.7578 12.169 10.6528 11.9152 10.6528 11.6506C10.6528 11.3859 10.7578 11.1321 10.9449 10.9449Z" fill="white"/>
<path d="M10.9449 10.9449C11.1321 10.7579 11.3859 10.6528 11.6505 10.6528C11.9152 10.6528 12.169 10.7579 12.3562 10.9449L15.0192 13.6079C15.2062 13.7951 15.3113 14.0489 15.3113 14.3135C15.3113 14.5782 15.2062 14.832 15.0192 15.0192L12.3562 17.6822C12.2648 17.7803 12.1546 17.859 12.0321 17.9136C11.9096 17.9682 11.7773 17.9975 11.6432 17.9999C11.5092 18.0023 11.376 17.9776 11.2516 17.9274C11.1273 17.8771 11.0143 17.8024 10.9195 17.7076C10.8247 17.6127 10.7499 17.4998 10.6997 17.3754C10.6495 17.2511 10.6248 17.1179 10.6272 16.9838C10.6295 16.8497 10.6589 16.7175 10.7135 16.595C10.768 16.4725 10.8467 16.3623 10.9449 16.2708L12.9021 14.3135L10.9449 12.3563C10.7578 12.169 10.6528 11.9152 10.6528 11.6506C10.6528 11.3859 10.7578 11.1321 10.9449 10.9449Z" fill="url(#paint0_linear_250_233)"/>
<path d="M4.4525 2.05582C7.0276 0.768268 10.5148 0 14.3135 0C18.1122 0 21.5994 0.768268 24.1758 2.05582C26.691 3.31274 28.627 5.23541 28.627 7.65606C28.627 9.45357 27.5432 10.9848 25.996 12.1458C24.4408 13.3109 22.2984 14.2003 19.8525 14.7356C19.5937 14.7921 19.323 14.7434 19.1 14.6004C18.877 14.4573 18.72 14.2315 18.6635 13.9726C18.607 13.7138 18.6556 13.4431 18.7987 13.2201C18.9418 12.9971 19.1676 12.8401 19.4264 12.7836C21.6833 12.291 23.5354 11.4934 24.799 10.5467C26.0705 9.59471 26.6298 8.58677 26.6298 7.65606C26.6298 6.39913 25.5859 4.99308 23.2824 3.84134C21.0375 2.72023 17.8686 1.99723 14.3135 1.99723C10.7584 1.99723 7.58949 2.72023 5.3446 3.84134C3.04112 4.99308 1.99723 6.39913 1.99723 7.65606C1.99723 8.91298 3.04112 10.319 5.3446 11.4708C7.58949 12.5919 10.7584 13.3149 14.3135 13.3149C14.5784 13.3149 14.8324 13.4201 15.0196 13.6074C15.2069 13.7947 15.3121 14.0487 15.3121 14.3135C15.3121 14.5784 15.2069 14.8324 15.0196 15.0196C14.8324 15.2069 14.5784 15.3121 14.3135 15.3121C10.5148 15.3121 7.0276 14.5438 4.4525 13.2563C1.93598 11.9994 0 10.0767 0 7.65606C0 5.23541 1.93598 3.31274 4.4525 2.05582Z" fill="white"/>
<path d="M4.4525 2.05582C7.0276 0.768268 10.5148 0 14.3135 0C18.1122 0 21.5994 0.768268 24.1758 2.05582C26.691 3.31274 28.627 5.23541 28.627 7.65606C28.627 9.45357 27.5432 10.9848 25.996 12.1458C24.4408 13.3109 22.2984 14.2003 19.8525 14.7356C19.5937 14.7921 19.323 14.7434 19.1 14.6004C18.877 14.4573 18.72 14.2315 18.6635 13.9726C18.607 13.7138 18.6556 13.4431 18.7987 13.2201C18.9418 12.9971 19.1676 12.8401 19.4264 12.7836C21.6833 12.291 23.5354 11.4934 24.799 10.5467C26.0705 9.59471 26.6298 8.58677 26.6298 7.65606C26.6298 6.39913 25.5859 4.99308 23.2824 3.84134C21.0375 2.72023 17.8686 1.99723 14.3135 1.99723C10.7584 1.99723 7.58949 2.72023 5.3446 3.84134C3.04112 4.99308 1.99723 6.39913 1.99723 7.65606C1.99723 8.91298 3.04112 10.319 5.3446 11.4708C7.58949 12.5919 10.7584 13.3149 14.3135 13.3149C14.5784 13.3149 14.8324 13.4201 15.0196 13.6074C15.2069 13.7947 15.3121 14.0487 15.3121 14.3135C15.3121 14.5784 15.2069 14.8324 15.0196 15.0196C14.8324 15.2069 14.5784 15.3121 14.3135 15.3121C10.5148 15.3121 7.0276 14.5438 4.4525 13.2563C1.93598 11.9994 0 10.0767 0 7.65606C0 5.23541 1.93598 3.31274 4.4525 2.05582Z" fill="url(#paint1_linear_250_233)"/>
<defs>
<linearGradient id="paint0_linear_250_233" x1="10.627" y1="14.3267" x2="15.3113" y2="14.3267" gradientUnits="userSpaceOnUse">
<stop stop-color="#E4F0FF"/>
<stop offset="0.35" stop-color="#E2EEFC"/>
<stop offset="0.5" stop-color="#DBE7F5"/>
<stop offset="0.61" stop-color="#D1DBE9"/>
<stop offset="0.7" stop-color="#C1CBD7"/>
<stop offset="0.78" stop-color="#ADB5C0"/>
<stop offset="0.85" stop-color="#949AA4"/>
<stop offset="0.92" stop-color="#767A82"/>
<stop offset="0.98" stop-color="#55575C"/>
<stop offset="1" stop-color="#48494D"/>
</linearGradient>
<linearGradient id="paint1_linear_250_233" x1="0" y1="7.65668" x2="28.627" y2="7.65668" gradientUnits="userSpaceOnUse">
<stop stop-color="#E4F0FF"/>
<stop offset="0.35" stop-color="#E2EEFC"/>
<stop offset="0.5" stop-color="#DBE7F5"/>
<stop offset="0.61" stop-color="#D1DBE9"/>
<stop offset="0.7" stop-color="#C1CBD7"/>
<stop offset="0.78" stop-color="#ADB5C0"/>
<stop offset="0.85" stop-color="#949AA4"/>
<stop offset="0.92" stop-color="#767A82"/>
<stop offset="0.98" stop-color="#55575C"/>
<stop offset="1" stop-color="#48494D"/>
</linearGradient>
</defs>
</svg>

<svg xmlns="http://www.w3.org/2000/svg" width="29" height="18" fill="none"><path fill="#fff" d="M10.945 10.945a.998.998 0 0 1 1.411 0l2.663 2.663a.998.998 0 0 1 0 1.411l-2.663 2.663a.999.999 0 1 1-1.411-1.411l1.957-1.958-1.957-1.957a.998.998 0 0 1 0-1.411Z"/><path fill="url(#a)" d="M10.945 10.945a.998.998 0 0 1 1.411 0l2.663 2.663a.998.998 0 0 1 0 1.411l-2.663 2.663a.999.999 0 1 1-1.411-1.411l1.957-1.958-1.957-1.957a.998.998 0 0 1 0-1.411Z"/><path fill="#fff" d="M4.452 2.056C7.028.768 10.515 0 14.314 0c3.8 0 7.286.768 9.863 2.056 2.515 1.257 4.451 3.18 4.451 5.6 0 1.798-1.084 3.329-2.631 4.49-1.555 1.165-3.698 2.054-6.143 2.59a1 1 0 0 1-.427-1.952c2.257-.493 4.11-1.29 5.373-2.237 1.271-.952 1.83-1.96 1.83-2.89 0-1.258-1.043-2.664-3.347-3.816-2.244-1.12-5.413-1.844-8.969-1.844-3.555 0-6.724.723-8.968 1.844C3.04 4.993 1.997 6.4 1.997 7.656c0 1.257 1.044 2.663 3.348 3.815 2.244 1.12 5.413 1.844 8.968 1.844a.998.998 0 1 1 0 1.997c-3.798 0-7.285-.768-9.86-2.056C1.935 12 0 10.076 0 7.656c0-2.42 1.936-4.343 4.452-5.6Z"/><path fill="url(#b)" d="M4.452 2.056C7.028.768 10.515 0 14.314 0c3.8 0 7.286.768 9.863 2.056 2.515 1.257 4.451 3.18 4.451 5.6 0 1.798-1.084 3.329-2.631 4.49-1.555 1.165-3.698 2.054-6.143 2.59a1 1 0 0 1-.427-1.952c2.257-.493 4.11-1.29 5.373-2.237 1.271-.952 1.83-1.96 1.83-2.89 0-1.258-1.043-2.664-3.347-3.816-2.244-1.12-5.413-1.844-8.969-1.844-3.555 0-6.724.723-8.968 1.844C3.04 4.993 1.997 6.4 1.997 7.656c0 1.257 1.044 2.663 3.348 3.815 2.244 1.12 5.413 1.844 8.968 1.844a.998.998 0 1 1 0 1.997c-3.798 0-7.285-.768-9.86-2.056C1.935 12 0 10.076 0 7.656c0-2.42 1.936-4.343 4.452-5.6Z"/><defs><linearGradient id="a" x1="10.627" x2="15.311" y1="14.327" y2="14.327" gradientUnits="userSpaceOnUse"><stop stop-color="#E4F0FF"/><stop offset=".35" stop-color="#E2EEFC"/><stop offset=".5" stop-color="#DBE7F5"/><stop offset=".61" stop-color="#D1DBE9"/><stop offset=".7" stop-color="#C1CBD7"/><stop offset=".78" stop-color="#ADB5C0"/><stop offset=".85" stop-color="#949AA4"/><stop offset=".92" stop-color="#767A82"/><stop offset=".98" stop-color="#55575C"/><stop offset="1" stop-color="#48494D"/></linearGradient><linearGradient id="b" x1="0" x2="28.627" y1="7.657" y2="7.657" gradientUnits="userSpaceOnUse"><stop stop-color="#E4F0FF"/><stop offset=".35" stop-color="#E2EEFC"/><stop offset=".5" stop-color="#DBE7F5"/><stop offset=".61" stop-color="#D1DBE9"/><stop offset=".7" stop-color="#C1CBD7"/><stop offset=".78" stop-color="#ADB5C0"/><stop offset=".85" stop-color="#949AA4"/><stop offset=".92" stop-color="#767A82"/><stop offset=".98" stop-color="#55575C"/><stop offset="1" stop-color="#48494D"/></linearGradient></defs></svg>
